svgs/light/clipboard-list-check.svg

<svg xmlns="http://www.w3.org/2000/svg" viewBox="0 0 384 512"><!-- Font Awesome Pro 6.0.0-alpha2 by @fontawesome - https://fontawesome.com License - https://fontawesome.com/license (Commercial License) --><path d="M304 336H176C167.156 336 160 343.156 160 352S167.156 368 176 368H304C312.844 368 320 360.844 320 352S312.844 336 304 336ZM304 240H208C199.156 240 192 247.156 192 256S199.156 272 208 272H304C312.844 272 320 264.844 320 256S312.844 240 304 240ZM96 328C82.746 328 72 338.744 72 352C72 365.254 82.746 376 96 376C109.256 376 120 365.254 120 352C120 338.744 109.256 328 96 328ZM320 64C311.156 64 304 71.156 304 80S311.156 96 320 96C337.641 96 352 110.344 352 128V448C352 465.656 337.641 480 320 480H64C46.359 480 32 465.656 32 448V128C32 110.344 46.359 96 64 96C72.844 96 80 88.844 80 80S72.844 64 64 64C28.703 64 0 92.719 0 128V448C0 483.281 28.703 512 64 512H320C355.297 512 384 483.281 384 448V128C384 92.719 355.297 64 320 64ZM112 128H272C280.844 128 288 120.844 288 112S280.844 96 272 96H247.123C252.621 86.555 256 75.717 256 64C256 28.654 227.346 0 192 0S128 28.654 128 64C128 75.717 131.379 86.555 136.877 96H112C103.156 96 96 103.156 96 112S103.156 128 112 128ZM192 32C209.645 32 224 46.355 224 64S209.645 96 192 96S160 81.645 160 64S174.355 32 192 32ZM68.25 229.156C62.25 235.656 62.656 245.75 69.156 251.75L103.812 283.75C106.891 286.594 110.781 288 114.672 288C118.875 288 123.078 286.344 126.219 283.062L187.547 219.062C193.672 212.687 193.453 202.562 187.062 196.438C180.703 190.344 170.578 190.531 164.453 196.938L113.984 249.594L90.844 228.25C84.391 222.25 74.219 222.625 68.25 229.156Z"/></svg>

<svg xmlns="http://www.w3.org/2000/svg" viewBox="0 0 384 512"><!--! Font Awesome Pro 6.0.0-alpha3 by @fontawesome - https://fontawesome.com License - https://fontawesome.com/license (Commercial License) --><path d="M304 336h-128C167.2 336 160 343.2 160 352s7.156 16 16 16h128c8.844 0 16-7.156 16-16S312.8 336 304 336zM304 240h-96C199.2 240 192 247.2 192 256s7.156 16 16 16h96C312.8 272 320 264.8 320 256S312.8 240 304 240zM96 328c-13.25 0-24 10.74-24 24c0 13.25 10.75 24 24 24c13.26 0 24-10.75 24-24C120 338.7 109.3 328 96 328zM320 64c-8.844 0-16 7.156-16 16S311.2 96 320 96c17.64 0 32 14.34 32 32v320c0 17.66-14.36 32-32 32H64c-17.64 0-32-14.34-32-32V128c0-17.66 14.36-32 32-32c8.844 0 16-7.156 16-16S72.84 64 64 64C28.7 64 0 92.72 0 128v320c0 35.28 28.7 64 64 64h256c35.3 0 64-28.72 64-64V128C384 92.72 355.3 64 320 64zM112 128h160C280.8 128 288 120.8 288 112S280.8 96 272 96h-24.88C252.6 86.55 256 75.72 256 64c0-35.35-28.65-64-64-64S128 28.65 128 64c0 11.72 3.379 22.55 8.877 32H112C103.2 96 96 103.2 96 112S103.2 128 112 128zM192 32c17.64 0 32 14.36 32 32s-14.36 32-32 32S160 81.64 160 64S174.4 32 192 32zM68.25 229.2c-6 6.5-5.594 16.59 .9062 22.59l34.66 32C106.9 286.6 110.8 288 114.7 288c4.203 0 8.406-1.656 11.55-4.938l61.33-64c6.125-6.375 5.906-16.5-.4844-22.62c-6.359-6.094-16.48-5.906-22.61 .5L113.1 249.6L90.84 228.3C84.39 222.3 74.22 222.6 68.25 229.2z"/></svg>
